resources/devices/web_camera_1.svg

<?xml version="1.0" encoding="UTF-8" standalone="no"?>
<svg
   width="27.999838"
   height="40"
   class="icon flat-line"
   data-name="Flat Line"
   version="1.1"
   id="svg3"
   sodipodi:docname="web_camera_1.svg"
   inkscape:version="1.3.2 (091e20e, 2023-11-25)"
   xmlns:inkscape="http://www.inkscape.org/namespaces/inkscape"
   xmlns:sodipodi="http://sodipodi.sourceforge.net/DTD/sodipodi-0.dtd"
   xmlns="http://www.w3.org/2000/svg"
   xmlns:svg="http://www.w3.org/2000/svg">
  <defs
     id="defs3" />
  <sodipodi:namedview
     id="namedview3"
     pagecolor="#ffffff"
     bordercolor="#000000"
     borderopacity="0.25"
     inkscape:showpageshadow="2"
     inkscape:pageopacity="0.0"
     inkscape:pagecheckerboard="0"
     inkscape:deskcolor="#d1d1d1"
     inkscape:current-layer="svg3" />
  <path
     id="path2"
     style="color:#000000;fill:#000000;stroke-linecap:round;stroke-linejoin:round;-inkscape-stroke:none"
     d="m 13.999919,0.16601562 c -7.5809194,0 -13.76953119,6.18861158 -13.76953119,13.76953138 0,5.037635 2.73484719,9.458787 6.79296879,11.859375 L 5.4413253,28.972656 A 1.7495349,1.7495349 0 0 0 5.2577316,29.751953 V 33.25 a 1.7495349,1.7495349 0 0 0 1.75,1.75 H 21.001872 a 1.7495349,1.7495349 0 0 0 1.75,-1.75 v -3.498047 a 1.7495349,1.7495349 0 0 0 -0.185547,-0.78125 l -1.58789,-3.177734 c 4.056856,-2.400898 6.791015,-6.820737 6.791015,-11.857422 0,-7.5809198 -6.188612,-13.76953138 -13.769531,-13.76953138 z m 0,3.99999998 c 5.419166,0 9.769531,4.3503655 9.769531,9.7695314 0,5.419164 -4.350365,9.769531 -9.769531,9.769531 -5.4191655,0 -9.7695311,-4.350367 -9.7695311,-9.769531 0,-5.4191659 4.3503656,-9.7695314 9.7695311,-9.7695314 z m 0,4.8027344 c -2.707379,0 -4.9335937,2.226212 -4.9335937,4.933594 0,2.707379 2.2262147,4.935547 4.9335937,4.935547 2.707379,0 4.933594,-2.228168 4.933594,-4.935547 0,-2.707382 -2.226215,-4.933594 -4.933594,-4.933594 z m 0,3 c 1.086065,0 1.933594,0.847529 1.933594,1.933594 0,1.086064 -0.847529,1.935547 -1.933594,1.935547 -1.086065,0 -1.933594,-0.849483 -1.933594,-1.935547 0,-1.086065 0.847529,-1.933594 1.933594,-1.933594 z m -3.816406,15.330078 0.539062,0.0059 c 1.051415,0.258682 2.148322,0.40039 3.277344,0.40039 1.010164,0 1.993987,-0.113847 2.943359,-0.322266 l 0.925782,0.01172 1.382812,2.769531 V 31.5 H 8.7577316 v -1.335938 z" />
</svg>

<svg xmlns="http://www.w3.org/2000/svg" width="28" height="40" class="icon flat-line" data-name="Flat Line">
    <path d="M14 .166C6.419.166.23 6.355.23 13.936c0 5.037 2.735 9.458 6.793 11.859l-1.582 3.178a1.75 1.75 0 0 0-.183.779v3.498A1.75 1.75 0 0 0 7.008 35h13.994a1.75 1.75 0 0 0 1.75-1.75v-3.498a1.75 1.75 0 0 0-.186-.781l-1.588-3.178c4.057-2.4 6.791-6.82 6.791-11.857C27.77 6.355 21.581.166 14 .166m0 4a9.74 9.74 0 0 1 9.77 9.77 9.74 9.74 0 0 1-9.77 9.77 9.74 9.74 0 0 1-9.77-9.77A9.74 9.74 0 0 1 14 4.166m0 4.803c-2.707 0-4.934 2.226-4.934 4.933 0 2.708 2.227 4.936 4.934 4.936s4.934-2.228 4.934-4.936S16.707 8.97 14 8.97m0 3a1.91 1.91 0 0 1 1.934 1.933A1.91 1.91 0 0 1 14 15.838a1.91 1.91 0 0 1-1.934-1.936A1.91 1.91 0 0 1 14 11.97M10.184 27.3l.539.006a13.7 13.7 0 0 0 3.277.4c1.01 0 1.994-.114 2.943-.322l.926.012 1.383 2.77V31.5H8.758v-1.336z" style="color:#000;fill:#000;stroke-linecap:round;stroke-linejoin:round;-inkscape-stroke:none"/>
</svg>
